X:1
T: Old Langalee
C:
R:Jig
Q:180
K:G
M:6/8
L:1/16
|:G6B6|A2G2A2 B2G2E2|D2E2F2 G4e2|d2c2B2 B2A2G2|
G6B6|A2G2A2 B2G2E2|D2E2F2 G2B2e2|d2c2B2 A4G2|
B2c2d2 d2e2=f2|e2c2e2 B2G2E2|B2c2d2 d2e2=f2|e2c2e2 g6|
G2A2G2 g2f2e2|d2c2B2 B2A2G2|D2E2F2 G2B2e2|d2c2B2 A4G2:|
